X:2918
T:Polonäs i Dm efter Johan Eric Blomgren
R:Polska
B:http://www.smus.se/earkiv/fmk/browselarge.php?lang=sw&katalogid=Ma+13a&bildnr=00062
S:efter Johan Eric Blomgren
O:Skåne, Hässlunda
Z:Nils L
M:3/4
L:1/16
K:Dm
A4 a2b2 g2a2 | f2e2 d2e2 f2d2 | ^c2ec A4 A4 | A4 a2b2 g2a2 | f2e2 d2e2 f2d2 | ^c2ec d4 D4 ::
e2f2 d2e2 f2d2 | ^c2"^?"e2 A4 A4 | e2ef d2e2 f2{e}a2 | gef^c d4 D4 :| 
(:musicend:)
(:music:)
